src/actions/symbolic/video-camera-symbolic.svg

<svg width="16" height="16" version="1.1" viewBox="0 0 16 16" xmlns="http://www.w3.org/2000/svg">
 <path d="m6.5 1a3.5 3.5 0 0 0-3.5 3.5 3.5 3.5 0 0 0 1.1992 2.6309c-0.12667 0.26291-0.19922 0.55674-0.19922 0.86914v0.89844l-2.8477-1.8984h-1.1523v6h1.1523l2.8477-1.8984v1.8984c0 1.108 0.892 2 2 2h7c1.108 0 2-0.892 2-2v-2l1-1v-2h-1c0-0.31148-0.071302-0.60487-0.19727-0.86719a3.5 3.5 0 0 0 1.1973-2.6328 3.5 3.5 0 0 0-3.5-3.5 3.5 3.5 0 0 0-2.998 1.7012 3.5 3.5 0 0 0-3.002-1.7012zm0 1a2.5 2.5 0 0 1 2.5 2.5 2.5 2.5 0 0 1-0.50977 1.5h-1.9902-0.5c-0.43207 0-0.82996 0.13598-1.1562 0.36719a2.5 2.5 0 0 1-0.84375-1.8672 2.5 2.5 0 0 1 2.5-2.5zm0 4a1.5 1.5 0 0 0 1.5-1.5 1.5 1.5 0 0 0-1.5-1.5 1.5 1.5 0 0 0-1.5 1.5 1.5 1.5 0 0 0 1.5 1.5zm6-4a2.5 2.5 0 0 1 2.5 2.5 2.5 2.5 0 0 1-0.84375 1.8672c-0.32629-0.2312-0.72418-0.36719-1.1562-0.36719h-0.5-1.9902a2.5 2.5 0 0 1-0.50977-1.5 2.5 2.5 0 0 1 2.5-2.5zm0 4a1.5 1.5 0 0 0 1.5-1.5 1.5 1.5 0 0 0-1.5-1.5 1.5 1.5 0 0 0-1.5 1.5 1.5 1.5 0 0 0 1.5 1.5zm-6-2a0.5 0.5 0 0 1 0.5 0.5 0.5 0.5 0 0 1-0.5 0.5 0.5 0.5 0 0 1-0.5-0.5 0.5 0.5 0 0 1 0.5-0.5zm6 0a0.5 0.5 0 0 1 0.5 0.5 0.5 0.5 0 0 1-0.5 0.5 0.5 0.5 0 0 1-0.5-0.5 0.5 0.5 0 0 1 0.5-0.5zm-6.5 3h0.5 2.4375 1.125 2.4375 0.5c0.027763 0 0.054859 0.0017118 0.082031 0.0039062 0.006533 5.319e-4 0.013035 0.0012974 0.019531 0.0019532 0.020444 0.0020549 0.040497 0.0045553 0.060547 0.0078125 0.002632 4.289e-4 0.005188 0.0015038 0.007813 0.0019531 0.019353 0.0033013 0.039646 0.0073296 0.058594 0.011719 0.004373 0.0010131 0.009321 8.831e-4 0.013672 0.0019531 0.010404 0.0025739 0.020979 0.0068704 0.03125 0.0097656 0.014633 0.0041278 0.028621 0.0069523 0.042968 0.011719 0.025194 0.0083251 0.049969 0.017121 0.074219 0.027344 0.02993 0.012617 0.057594 0.02761 0.085937 0.042969 0.017271 0.0093653 0.034152 0.018961 0.050782 0.029297 7.5e-4 4.655e-4 0.001204 0.0014858 0.001953 0.0019532 0.019069 0.011924 0.038472 0.02396 0.056641 0.037109 0.001889 0.0013676 0.003979 0.0025258 0.005859 0.0039063 0.015333 0.011239 0.030276 0.023079 0.044922 0.035156 0.024675 0.020347 0.047719 0.041859 0.070312 0.064453 0.018331 0.018331 0.035872 0.036929 0.052735 0.056641 0.002117 0.0024753 0.003765 0.0053161 0.005859 0.0078125 0.014377 0.017181 0.029757 0.034591 0.042969 0.052734 0.002454 0.0033682 0.005399 0.0063656 0.007812 0.0097657 0.009766 0.013766 0.018271 0.028693 0.027344 0.042969 0.00251 0.0039485 0.005357 0.0077325 0.007812 0.011719 0.00925 0.015004 0.016927 0.031354 0.025391 0.046875 0.003691 0.0067936 0.008182 0.012642 0.011719 0.019531 0.006054 0.011736 0.01198 0.023152 0.017578 0.035156 0.005409 0.011643 0.010655 0.023271 0.015625 0.035156 0.01018 0.024273 0.019064 0.049004 0.027344 0.074219 0.032404 0.098679 0.050781 0.20466 0.050781 0.31445v1 1 3c0 0.554-0.446 1-1 1h-7c-0.554 0-1-0.446-1-1v-5c0-0.554 0.446-1 1-1zm6.5 1a0.5 0.5 0 0 0-0.5 0.5 0.5 0.5 0 0 0 0.5 0.5 0.5 0.5 0 0 0 0.5-0.5 0.5 0.5 0 0 0-0.5-0.5zm-11.5 0.10156 2.5 1.666v0.46484l-2.5 1.666v-3.7969z" fill="#363636" style="paint-order:stroke fill markers"/>
</svg>

<svg xmlns="http://www.w3.org/2000/svg" width="16" height="16">
    <path fill="#050505" d="M6.5 1A3.5 3.5 0 0 0 3 4.5a3.5 3.5 0 0 0 1.2 2.63c-.127.264-.2.558-.2.87v.898L1.152 7H0v6h1.152L4 11.102V13c0 1.108.892 2 2 2h7c1.108 0 2-.892 2-2v-2l1-1V8h-1c0-.311-.071-.605-.197-.867A3.5 3.5 0 0 0 16 4.5 3.5 3.5 0 0 0 12.5 1a3.5 3.5 0 0 0-2.998 1.701 3.5 3.5 0 0 0-3.002-1.7zm0 1A2.5 2.5 0 0 1 9 4.5 2.5 2.5 0 0 1 8.49 6H6c-.432 0-.83.136-1.156.367A2.5 2.5 0 0 1 4 4.5 2.5 2.5 0 0 1 6.5 2zm0 4A1.5 1.5 0 0 0 8 4.5 1.5 1.5 0 0 0 6.5 3 1.5 1.5 0 0 0 5 4.5 1.5 1.5 0 0 0 6.5 6zm6-4A2.5 2.5 0 0 1 15 4.5a2.5 2.5 0 0 1-.844 1.867A1.99 1.99 0 0 0 13 6h-2.49A2.5 2.5 0 0 1 10 4.5 2.5 2.5 0 0 1 12.5 2zm0 4A1.5 1.5 0 0 0 14 4.5 1.5 1.5 0 0 0 12.5 3 1.5 1.5 0 0 0 11 4.5 1.5 1.5 0 0 0 12.5 6zm-6-2a.5.5 0 0 1 .5.5.5.5 0 0 1-.5.5.5.5 0 0 1-.5-.5.5.5 0 0 1 .5-.5zm6 0a.5.5 0 0 1 .5.5.5.5 0 0 1-.5.5.5.5 0 0 1-.5-.5.5.5 0 0 1 .5-.5zM6 7h7c.028 0 .055.002.082.004l.02.002a1 1 0 0 1 .06.008l.008.002.059.011.013.002.031.01c.015.004.03.007.043.012a.99.99 0 0 1 .075.027c.03.013.057.028.086.043l.05.03.002.001c.02.012.039.024.057.037l.006.004a1.001 1.001 0 0 1 .168.157l.006.007c.014.018.03.035.043.053l.007.01.028.043.008.012.025.046.012.02.017.035A.988.988 0 0 1 14 8v5c0 .554-.446 1-1 1H6c-.554 0-1-.446-1-1V8c0-.554.446-1 1-1zm6.5 1a.5.5 0 0 0-.5.5.5.5 0 0 0 .5.5.5.5 0 0 0 .5-.5.5.5 0 0 0-.5-.5zM1 8.102l2.5 1.666v.464L1 11.898V8.102z" opacity=".7" style="paint-order:stroke fill markers"/>
</svg>
